X: 133
T: 133. Wir glauben all an einen Gott
N: Derived from chor133.krn
C: Johann Sebastian Bach
%%abc-version 2.0
%%abcx-abcm2ps-target-version 5.9.1 (29 Sep 2008)
%%abc-creator hum2abc beta
%%abcx-conversion-date 2019/03/11 17:28:18
%%abc-edited-by Craig Stuart Sapp
%%humdrum-veritas 1986389813
%%humdrum-veritas-data 1802869060
%%
%%barnumbers 0
L: 1/8
M: C
%%staves [1 2 3 4]
V: 1 clef=treble
V: 2 clef=treble
V: 3 clef=treble-8
V: 4 clef=bass
K: C
[V:1] D4A2G2 | 
[V:2] z2A,2DF2E/D/ | 
[V:3] z2FGA2dG- | 
[V:4] z2D,E,F,D,_B,2 | 
[V:1] A2E2F4 | 
[V:2] E3D/^C/D4- | 
[V:3] GF/E/A2A4 | 
[V:4] ^C,3=B,,/A,,/ D,E,F,D, | 
[V:1] !fermata!E4G4 | 
[V:2] D2!fermata!^C2z2DE- | 
[V:3] !fermata!A4z2DA | 
[V:4] !fermata!A,,4z2B,,^C, | 
[V:1] F2E2D2^C2 | 
[V:2] ED2^C D/=C/_B,A,2 | 
[V:3] A2_BA/G/ FG/F/ E/F/G- | 
[V:4] D,F,,G,,A,, _B,,G,,A,,2 | 
[V:1] !fermata!D4A2A2 | 
[V:2] !fermata!A,4FED2- | 
[V:3] GF/E/!fermata!F2d2A2- | 
[V:4] !fermata!D,,4D,E,F,D, | 
[V:1] d2c2B2AB | 
[V:2] DE/F/E2E3D | 
[V:3] A^GA2^Gc2B/A/ | 
[V:4] B,,2C,D, E,C,F,2 | 
[V:1] c2B2!fermata!A4 | 
[V:2] EF2E/D/!fermata!C4 | 
[V:3] ^GA2^G!fermata!A4 | 
[V:4] E,D,E,2!fermata!A,,4 | 
[V:1] z2B2c2A2 | 
[V:2] z2EF GE CD | 
[V:3] z2=GF EGA2 | 
[V:4] z2E,D, C,E,F,2 | 
[V:1] A2E2F2F2 | 
[V:2] ED E^C A,B,/C/D2- | 
[V:3] A3G F3/G/A2 | 
[V:4] ^C,B,,C,A,, D,A,, F,,D,, | 
[V:1] !fermata!E4D2E2 | 
[V:2] D^C/B,/!fermata!C2D3C | 
[V:3] !fermata!A4FG/A/ _BA/G/ | 
[V:4] !fermata!A,,4_B,,A,, G,,A,, | 
[V:1] F2G2A2G2 | 
[V:2] A,_B,/=C/ DC C^C DE- | 
[V:3] F3E FE D_B | 
[V:4] D,=C, _B,,C, F,,G,,/A,,/ B,,A,,/G,,/ | 
[V:1] F2E2!fermata!D4 | 
[V:2] ED2^C!fermata!A,4 | 
[V:3] ^CA _BA/G/!fermata!F4 | 
[V:4] A,,F,, G,,A,,!fermata!D,,4 | 
[V:1] d2d2e2d2 | 
[V:2] =B,=CDB,C2DG | 
[V:3] G4GA BG | 
[V:4] G,,A,,B,,G,,C,2G,B, | 
[V:1] e2^c2d4 | 
[V:2] GA _BG A^FG2- | 
[V:3] cAe2d=c2_B | 
[V:4] E,F,G,E, ^F,D,G,2 | 
[V:1] !fermata!d4e2=B2 | 
[V:2] G^F/E/!fermata!F2EF^GE | 
[V:3] !fermata!A4A2ed | 
[V:4] !fermata!D,4C,D,E,2- | 
[V:1] c2A2A2E2 | 
[V:2] A2^C2D3C | 
[V:3] cde2A4 | 
[V:4] E,=F,=G,E, F,G,A,G, | 
[V:1] F4!fermata!E4 | 
[V:2] D3^C/B,/!fermata!C4 | 
[V:3] A3^G!fermata!A4 | 
[V:4] F,E,D,2!fermata!A,,4 | 
[V:1] A2^G2A2B2 | 
[V:2] E4E2F2- | 
[V:3] ABcd cBA^G | 
[V:4] =C,D,E,B,,C,2D,2- | 
[V:1] c2B2A2^G2 | 
[V:2] F^FG^G AA, B,=D- | 
[V:3] A2e2-ede2 | 
[V:4] D,^D,E,C,=F,2E,2 | 
[V:1] !fermata!A4=B2^c2 | 
[V:2] DC/B,/!fermata!C2=G=FEG- | 
[V:3] !fermata!e4G2A2 | 
[V:4] !fermata!A,,4E,2A,,2 | 
[V:1] d4A2G2 | 
[V:2] GF/E/F2F3E- | 
[V:3] A4d3=c/_B/ | 
[V:4] D,4D,=C,_B,,C, | 
[V:1] A2E2F4 | 
[V:2] ED2^CD4 | 
[V:3] A4-AGAB | 
[V:4] F,,G,,A,,2D,,E,,F,,D,, | 
[V:1] !fermata!E4G4 | 
[V:2] !fermata!E4E2A,2 | 
[V:3] !fermata!=c4^cde2 | 
[V:4] !fermata!A,,4E,D,^C,E, | 
[V:1] F2E2D2^C2 | 
[V:2] D=C_B,C A,B, E,E | 
[V:3] A2GA ^FGA2- | 
[V:4] D,2-D,=C, C,_B,,A,,G,, | 
[V:1] DEF2E4 | 
[V:2] D^CD4C2 | 
[V:3] AGA2_B2AG- | 
[V:4] F,,E,,D,,F,, G,,E,,A,,2 | 
[V:1] !fermata!D4F2G2 | 
[V:2] !fermata!A,4D2=C2- | 
[V:3] GF/E/!fermata!F2_BAGc | 
[V:4] !fermata!D,,4D,2E,2 | 
[V:1] A2=B2c2B2 | 
[V:2] C2FD EF GE | 
[V:3] A2d=BG3c | 
[V:4] F,E,D,G, E,D,E,C, | 
[V:1] !fermata!A4z2G2 | 
[V:2] !fermata!F4z2FE- | 
[V:3] !fermata!c4z2dA | 
[V:4] !fermata!F,4z2B,,^C, | 
[V:1] F2E2!fermata!D4 | 
[V:2] ED2^C!fermata!D4 | 
[V:3] A_B2A/G/!fermata!F4 | 
[V:4] D,_B,,G,,A,,!fermata!B,,4 | 
[V:1] E4F2G2 | 
[V:2] ^CDE2-ED CE | 
[V:3] A4A_B2A/G/ | 
[V:4] A,,=B,,^C,A,,D,2E,2- | 
[V:1] F2G2D2^C2 | 
[V:2] A,_B,2A,- A,=B,A,2 | 
[V:3] AG/F/ GF/E/F2E/F/G- | 
[V:4] E,D,2^C, D,^G,,A,,2 | 
[V:1] !fermata!D8 |]  
[V:2] !fermata!A,8 |]  
[V:3] G^F/E/!fermata!^F6 |]  
[V:4] !fermata!D,,8 |]  



